-----BEGIN PGP PUBLIC KEY BLOCK-----

mQINBGq6XGgBEAC0iz4RDGKXJwvPHAtxccZ8bPy4BDK4DeQsAuDPBBJdhwM8z+S8
Fb4p6eQ4Zi5nODB2OC9lqrKZYkQEFVm0eOj/9Tb+h+HvJ1jL5EWIqi9v2I65Wz6q
0ETjD9n+hshYYZyjsWh2uOL/y6miJ52EWnm9jRsb/hq1WUnFCuLc90zPkKS2ye4I
Hoqolu6oNwmIwbycXUmcdID9RR0x3E1fsTXEwWZY1hGHqnaIGZLetMgwIkiIyM6J
0ePWv7yf/yjXqQJ8HH16n1cbm/jvJmj4A4xq7Gcove/7J/BlxuL0PlAzjTdaNy9C
4mzpHd4/FA+0+bkw3JQI+nKwBm5rEUwFp0Fie+aS6lVn45BKyjMucBOttpJklfM0
LwgaXBYHTGDMQCrqGPSb7YgxNIMel+VfAny+A2fpPzFbkZkNI4YHu7lHMW23kiHQ
OrPCQNiQjY4SviSDZmPsXsWq1hGnzj4U6dZpdI09kbVkajGLka3GbvFZWUzIrG7+
4OZbQYRJ4hmeC8cKrolnvbfir2N6QMtPEGHNTpwQ5zsqPp1JFAp1WvWuAsCPDSD/
WuNEfor6lz6FNJwvcETGiY191c2ASTGmxHns411wuoYQLuQjtCgwGjjC0yi9d659
tCnEZ04ZX0vJRE8VSCPgttlalN/CGjeCNcV3rgeAoPilAltPM4l7gOq3FwARAQAB
tC9WaXRvciBSZXZvcmVkbyA8am9hb3ZpdG9yZWRvcmV2b3JlZG9AZ21haWwuY29t
PokCVQQTAQoAPxYhBObiPYpaF7l78kuFtQjs6XGkxK+gBQJqulxoAxsvBAUJA8Jn
AAULCQgHAgYVCgkICwIEFgIDAQIeAQIXgAAKCRAI7OlxpMSvoB8MD/4qRW9v5hzt
9hpJDJofsuMVdj2cBh/W3XyHWidmNPWYKdWFyeUEh481OdDyDsxQavMG8i1Us2Kn
6I4nLiPBm26ErHvcURDytal+Xp8U5cC0wydzjcz/BiJMGPjKuzZyQ/mc0XWafUgM
lqxExu7O7oi+jyoSScPSYyHKKSAIn7VeWaqWDSaazp2wDh2TvqvUmjkGiMic5qKV
l5zhxPcl3DuTEgwXM//ZdI4RAF3u68Y+6ZYGfwkjNDNGla1J5Bt4MRb3VEzMWS4E
/o+7Ee2vvAniFSRJNqq2ERo7wHqY0VecNzTPtIexqtHwzPcJsw72lbPrOJsw1GTp
oPE14wz7qNJnyKgLk+qW5oVSdajDsrcaCNGZ8znv50aygCG0kTtoKnfaRZ5/N1S9
xuKOpWXpBbNzZSp0zJOMC7riJyA8ynYjdu9SDEX3GmfIecdPykwEM0HV9UpfrUSd
IeimkjoYgq2jRYWgBina+FSO9MJ6eNvU5ekqkr3Ln7DAglSrLYa4c2oPiFBb9W+P
yyCX00JLdOAoX2QePohF8IYM+tFTlLwrydObY/3toRTLjv3Obd8LKmZaMsB1SQ4N
PxOwPlaQnGTlACRT4oYQpfoZY44SfxlKDc5OOn7b6I/zsBbzxQex+WKp5e2I2h7b
qUvn1HjyCQmvesjmHL+Y4IhIgiAtu3OqlLkCDQRqulxoARAA0QQZS3zEX7pqs2BI
LR+Y6WXfos0tSs7lEZAlL6NMZvlxAl44MTH2zI2IzofXzJc7Ko9KZ3aMHBNDTTdw
0hJndkJJO/Bg6jUxwfIxUTuWLq6dlV2onyJQFCGcfNbdKyqudsXJhSC+odnn2QUF
fBJr8yZSkXbYqbSPgA5AaJnF8oc6HgW5ReEGuGlxVnUCScWZG8dud6zReI8TGck4
t/5RrATjjrf+GcNxXOM6qGn/FuxeQxr5klQY1ag9NnWjAS6wDjtBntmMAD6b6Tbj
Are4IX7N1r10oOR3viNSPnelSuzc3EsrelIAuL3QJks3SyD3jTNduH8+PLCfvujN
GQZEcFCSL/TFyYm411nqq0NDec9mzqYPcqtKKE7lT7GlzWszJeam77/EYE0CBV26
dWaMOqz/86/05NxvY0mB17vyrrQ1kv2VBuGQQGRQOvVUjv5ir7Ky5fkUTg9jfrrE
vYhQyZGQVB2wZrawKQapZIZQHiCkDS6VLGM3X+xHuKi35+3WQt5stLdHhvKz3eYu
ATQlQ0Rf4d1bDkVSZ5PtR3dbGJC5ulsYLCZ0ziv7sDwHwuMrVeTpuG+MeekgiPL1
ndwR+HdP03M8yn4krPO7EES0JSs3hq/uvmhuMErbyBmSCvH46oPZb01cdFD50jZ2
4c/mHACFMyhAffC3TmXta5Qh5v0AEQEAAYkEcgQYAQoAJhYhBObiPYpaF7l78kuF
tQjs6XGkxK+gBQJqulxoAhsuBQkDwmcAAkAJEAjs6XGkxK+gwXQgBBkBCgAdFiEE
SEYmpte3lLIcP3B+FSh0wcOapbYFAmq6XGgACgkQFSh0wcOapbY9tw/+ON0+DY8R
yjuAQyZQxeZUOYx4MdPtsc3/O/oB9CQOiYLZNyMi5nSNFWrVRKt1jxFlQSy6Z2gj
swaNGoC6TOm1/woiESGqbau7SUtG8s+2iqu9jwgD9lorUHGNr2VKNDtWbX7kRIPJ
/oyNsVGP8h0dkH1l9O366WYa4UyQYfOEaXnEcM9NSYBD1b1DoOlOS+07bI9BBZ7u
AP5wg2SQLfqGZXKeXyBHvfqHxG6MxmiYP0wo+6vZCEytJ4V6d6n82lstcd+Zade9
jk1cesr9GIAFOb4hLn513wY0sVMvo/senxmiCxC4oQsh43RjbOuOQlqcPo8pukYl
iC39G93qV3y9SOb+26zRvD6sZO3b8NJuBnnzcc5kFNSpyWZ+81sGcYg6ct4lhtS1
7NbiZJaMobxzKfvfmGeMTl7k75+knQEivQVxV3ZIZn5+qqYE5Pkr/wBl1ZEA9cvv
qkDqeM6NLn/x+DsiNWpyAxEinoQTYD4UOzBYvpH9heDfWpwC81CeiujJwZaiGKIH
98lXBiE1QiW7u/trV4rWGLM6okmoClz1rRzf70zIBHedmW+DzHTMLyU1cOvxiw9I
aCwReOMHD4k4R02rcSkPYvs8fZXc31QDVaqNPMR5iDLwTebe1BpzpDSqr9vpyefl
wiOLreliWfnWwtWe+crJ6pnTqdAnoUQYy46OPA//V+e5A2IYPpCmHGEKsk1Vrz0T
DUcBWniU9wQcbxPWJQ/FMqgbyVerxEC2bJbaPaw6ziz7tgUQx3iyLwjhIgBMdvx1
XGh8RZUkW9u6i8I1AgdiFLu9PTbbSrb8fbVOJPxUrDVGbLomDEjM62ky2os+ePv/
NS9i3ysqyoAE73wRvz//TzoZQUJN2BABR6rQIhLmx1HvGU2qpqjIQ1zkXXPoYcdI
/Q/S3xOFXJRXv7q2U5Qrv3EbuPV6oOVFCuVGb1Ik8AxcQ5zZ+0y8Q3znyGM0qoOp
M0n0csD1T/YXfiAuo6HO0s3iisOGYc5GjeA0TdXKoPVLEEeZjFmowMf2pI/+9tff
It803V8feOhBlffwRg7blFzki2w7MWex72dzfzrrFYkyFET5iOOvjpFOWOsn53WC
WwmygsLGkHfnkxkDOID/Rf3TJunmtLcjSHgz8FW2E11s3KvUx4GsgyeguAvCwgRf
aEcIOiIXpXwVVlasf9x0Se6ufJQmJ29d5Raf7PhDc4xw6LdbuQAzzy6PN6691+uZ
b5pYP/euUqB3O7pgca2FpNsLWAIk81iVb/rMNU+p1zTn5MD86vZAdX1dUymMRBDv
jZbDRI5Dz2wsZ7HmlcsrcLOKPt/iM82dZH4Y+4A1u2JLPzykMrCYDsam7wD5Base
C81xrbwO2UN4Wf47wak=
=jznb
-----END PGP PUBLIC KEY BLOCK-----
